src/lib/packages/icons/src/assets/filled/activity-star-square.svg

<svg width="24" height="24" viewBox="0 0 24 24" fill="none" xmlns="http://www.w3.org/2000/svg">
<path d="M16.62 3H5.38C3.12 3 2 4.12012 2 6.37012V17.6201C2 19.8701 3.12 21 5.38 21H14.52C14.64 21 14.759 20.9379 14.794 20.8169C14.804 20.7769 14.812 20.744 14.82 20.7L14.877 20.387C14.877 20.387 14.899 20.2881 14.87 20.2161C14.844 20.1491 14.789 20.095 14.789 20.095L14.08 19.4199C13.56 18.9199 13.37 18.18 13.59 17.49C13.81 16.79 14.4 16.3 15.12 16.2L16.29 16.03L16.79 15.05C17.11 14.4 17.77 14 18.5 14C18.88 14 19.25 14.1101 19.55 14.3101C19.74 14.4401 20 14.29 20 14.05V6.37012C20 4.12012 18.88 3 16.62 3ZM16.53 10.53L13.737 13.323C13.056 14.005 11.945 14.006 11.263 13.324L9.674 11.739C9.576 11.641 9.41801 11.641 9.32001 11.739L6.52901 14.53C6.38301 14.676 6.19099 14.75 5.99899 14.75C5.80699 14.75 5.61499 14.677 5.46899 14.53C5.17599 14.237 5.17599 13.762 5.46899 13.469L8.25999 10.678C8.94199 9.99598 10.052 9.996 10.734 10.677L12.323 12.262C12.421 12.359 12.579 12.359 12.677 12.262L15.47 9.46899C15.763 9.17599 16.238 9.17599 16.531 9.46899C16.824 9.76199 16.823 10.237 16.53 10.53ZM20.62 19.54C20.53 19.62 20.49 19.7499 20.51 19.8799L20.8 21.52C20.84 21.79 20.63 22 20.39 22C20.32 22 20.26 21.99 20.19 21.95L18.68 21.1699C18.62 21.1499 18.56 21.1299 18.5 21.1299C18.44 21.1299 18.38 21.1499 18.32 21.1699L16.81 21.95C16.74 21.98 16.68 22 16.61 22C16.37 22 16.16 21.78 16.2 21.52L16.49 19.8799C16.51 19.7499 16.47 19.62 16.38 19.54L15.12 18.3301C14.89 18.1101 15.01 17.7299 15.33 17.6799L17.08 17.4299C17.2 17.4199 17.31 17.34 17.37 17.23L18.13 15.73C18.2 15.58 18.35 15.5 18.5 15.5C18.65 15.5 18.8 15.58 18.87 15.73L19.63 17.23C19.69 17.34 19.8 17.4199 19.92 17.4299L21.67 17.6799C21.99 17.7299 22.11 18.1101 21.88 18.3301L20.62 19.54Z" fill="currentColor"/>
</svg>

<svg xmlns="http://www.w3.org/2000/svg" width="24" height="24" fill="none"><path fill="currentColor" d="M16.62 3H5.38C3.12 3 2 4.12 2 6.37v11.25C2 19.87 3.12 21 5.38 21h9.14c.12 0 .239-.062.274-.183.01-.04.018-.073.026-.117l.057-.313s.022-.099-.007-.17a.393.393 0 0 0-.081-.122l-.709-.675c-.52-.5-.71-1.24-.49-1.93.22-.7.81-1.19 1.53-1.29l1.17-.17.5-.98c.32-.65.98-1.05 1.71-1.05.38 0 .75.11 1.05.31.19.13.45-.02.45-.26V6.37C20 4.12 18.88 3 16.62 3Zm-.09 7.53-2.793 2.793a1.752 1.752 0 0 1-2.474.001l-1.589-1.585a.25.25 0 0 0-.354 0L6.529 14.53a.748.748 0 0 1-1.06 0 .75.75 0 0 1 0-1.061l2.791-2.791a1.752 1.752 0 0 1 2.474-.001l1.589 1.585a.252.252 0 0 0 .354 0l2.793-2.793a.75.75 0 1 1 1.06 1.061Zm4.09 9.01c-.09.08-.13.21-.11.34l.29 1.64c.04.27-.17.48-.41.48-.07 0-.13-.01-.2-.05l-1.51-.78a.584.584 0 0 0-.18-.04c-.06 0-.12.02-.18.04l-1.51.78c-.07.03-.13.05-.2.05a.42.42 0 0 1-.41-.48l.29-1.64a.377.377 0 0 0-.11-.34l-1.26-1.21c-.23-.22-.11-.6.21-.65l1.75-.25c.12-.01.23-.09.29-.2l.76-1.5c.07-.15.22-.23.37-.23s.3.08.37.23l.76 1.5c.06.11.17.19.29.2l1.75.25c.32.05.44.43.21.65l-1.26 1.21Z"/></svg>
